X:6400
T:Godess March,bass part. JNu.44
M:2/4
Q:50
S:James Nuttall MS,c1830?,Rossendale,East Lancs.
O:England
A:East Lancashire
Z:Chris Partington
K:D
"thirdo,read as bass clef"
BBBB|FFF2|BBde|fFB2|.b.b .e.e|.f.f .B.B|.e.e .f.f|.F.FB2::!
f2f2|FFFF|BBBB|ffBB|.b.b .e.e|.f.f .B.B|.e.e .f.f|FF B2::!
B2BB|B2cB|ee fF|B2BB|B2dB|B2cB|ec fF|B2B2::!
BBBB|EEE2|Fc fc|fFB2|BBBB|EEE2|de fF|BBB2:|]


